src/public/assets/about/time.svg

<svg width="51" height="51" viewBox="0 0 51 51" fill="none" xmlns="http://www.w3.org/2000/svg">
<path d="M25.5 0C39.5834 0 51 11.4167 51 25.5C51 39.5834 39.5834 51 25.5 51C20.6561 51 16.0068 49.6451 11.9873 47.1291C10.35 46.1043 8.83348 44.8961 7.4677 43.5302C6.09988 42.1623 4.89036 40.643 3.86469 39.0028C1.35263 34.9854 0 30.3399 0 25.5C0 24.7231 0.0347934 23.9504 0.103983 23.1832C0.209355 22.0141 1.24233 21.1523 2.4112 21.2574C3.58006 21.3628 4.44218 22.3958 4.33681 23.5648C4.27907 24.2052 4.25 24.8506 4.25 25.5C4.25 29.5372 5.3756 33.403 7.46818 36.7495C8.32331 38.1168 9.33209 39.3839 10.4731 40.5252C11.6124 41.6644 12.8772 42.6723 14.2423 43.5265C17.5906 45.6226 21.4594 46.75 25.5 46.75C37.236 46.75 46.75 37.236 46.75 25.5C46.75 13.7639 37.236 4.25 25.5 4.25C18.7077 4.25 12.4653 7.45963 8.49362 12.7556L16.3035 12.7559C17.4771 12.7559 18.4285 13.7073 18.4285 14.8809C18.4285 15.9567 17.6291 16.8458 16.5919 16.9865L16.3035 17.0059H3.54167C2.46585 17.0059 1.57678 16.2065 1.43607 15.1693L1.41667 14.8809V2.13092C1.41667 0.957327 2.36807 0.0059216 3.54167 0.0059216C4.61748 0.0059216 5.50656 0.805375 5.64726 1.84257L5.66667 2.13092L5.66383 9.47319C10.4433 3.55875 17.6695 0 25.5 0ZM23.375 11.3333C24.4503 11.3333 25.3399 12.1333 25.4804 13.1701L25.5 13.4583V25.5H31.875C33.048 25.5 34 26.452 34 27.625C34 28.7003 33.2001 29.5899 32.1631 29.7304L31.875 29.75H23.375C22.2997 29.75 21.4101 28.9501 21.2695 27.9131L21.25 27.625V13.4583C21.25 12.2853 22.202 11.3333 23.375 11.3333Z" fill="white"/>
</svg>

<svg width="51" height="51" fill="none" xmlns="http://www.w3.org/2000/svg"><path d="M25.5 0C39.583 0 51 11.417 51 25.5S39.583 51 25.5 51a25.388 25.388 0 0 1-13.513-3.87 25.602 25.602 0 0 1-8.122-8.127A25.388 25.388 0 0 1 0 25.5c0-.777.035-1.55.104-2.317a2.125 2.125 0 1 1 4.233.382c-.058.64-.087 1.286-.087 1.935 0 4.037 1.126 7.903 3.218 11.25a21.367 21.367 0 0 0 6.774 6.776A21.136 21.136 0 0 0 25.5 46.75c11.736 0 21.25-9.514 21.25-21.25S37.236 4.25 25.5 4.25a21.217 21.217 0 0 0-17.006 8.506h7.81a2.125 2.125 0 0 1 .288 4.23l-.288.02H3.541c-1.076 0-1.965-.8-2.106-1.837l-.02-.288V2.13a2.125 2.125 0 0 1 4.231-.288l.02.288-.003 7.342A25.46 25.46 0 0 1 25.5 0Zm-2.125 11.333c1.075 0 1.965.8 2.105 1.837l.02.288V25.5h6.375a2.126 2.126 0 0 1 .288 4.23l-.288.02h-8.5c-1.075 0-1.965-.8-2.105-1.837l-.02-.288V13.458c0-1.173.952-2.125 2.125-2.125Z" fill="#fff"/></svg>
